dist/svg/sort-down.svg

<!-- Generated by Trend Micro Style Portal -->
<svg version="1.1" xmlns="http://www.w3.org/2000/svg" width="16" height="16" viewBox="0 0 16 16">
  <title>sort-down</title>
  <path fill="rgb(34,34,34)" d="M11 8.667l-3.5 3.333-3.5-3.333 0.7-0.667 2.3 2.19v-6.19h1v6.19l2.3-2.19z"></path>
</svg>

<svg width="16" height="16" viewBox="0 0 16 16" fill="rgb(34, 34, 34)" xmlns="http://www.w3.org/2000/svg"><title>sort-down</title><path d="M11 8.667L7.5 12L4 8.667L4.7 8L7 10.19V4H8V10.19L10.3 8L11 8.667Z" fill="rgb(34, 34, 34)" fill-opacity="1.00"/></svg>
